static/assets/images/icons/dexscreener.svg

<svg width="256" height="256" viewBox="0 0 256 256" fill="none" xmlns="http://www.w3.org/2000/svg">
<path d="M80.6 47.4415C81.384 46.3919 82.2218 45.4926 83.1137 44.7437C110.815 21.4766 150.317 22.3701 176.109 47.9776C176.358 48.2228 176.668 48.3971 177.008 48.4823C177.348 48.5676 177.706 48.5608 178.044 48.4627C183.707 46.8174 188.348 43.6657 191.967 39.0078C192.013 38.945 192.08 38.9019 192.155 38.8865C192.23 38.8712 192.309 38.8847 192.376 38.9245C192.443 38.9642 192.494 39.0276 192.519 39.1025C192.544 39.1774 192.542 39.2588 192.512 39.3312C183.028 61.2537 161.249 79.1423 140.476 90.0865C139.845 90.4156 139.209 90.4213 138.567 90.1035C136.445 89.0568 134.324 87.627 132.049 87.159C126.896 86.098 122.096 87.1278 117.648 90.2482C117.183 90.5773 116.694 90.6113 116.183 90.3503C102.89 83.4513 90.9613 74.6233 80.3956 63.8663C73.417 56.7687 66.856 48.0797 63.4562 38.6503C63.2688 38.117 63.3795 38.0461 63.7885 38.4376C64.8792 39.4758 65.5268 40.9821 66.5237 41.9013C69.8639 44.9735 74.5673 48.5478 79.2708 48.1819C79.8275 48.1365 80.2706 47.8897 80.6 47.4415Z" fill="black"/>
<path d="M128.137 214.345C134.852 194.44 139.061 173.462 150.104 155.275C155.924 145.676 166.711 141.284 176.416 136.034C176.475 136.003 176.525 135.957 176.56 135.901C176.596 135.844 176.615 135.779 176.615 135.713C176.616 135.646 176.599 135.581 176.565 135.523C176.532 135.466 176.483 135.419 176.425 135.387L155.412 123.302C155.117 123.132 154.955 122.879 154.927 122.545L154.237 114.596C154.218 114.381 154.243 114.164 154.31 113.958C154.378 113.753 154.486 113.563 154.628 113.4C154.77 113.237 154.944 113.105 155.139 113.01C155.334 112.916 155.546 112.862 155.762 112.852C174.354 111.966 185.286 96.1458 176.254 79.0402C176.14 78.8259 176.093 78.5824 176.117 78.3402C176.141 78.098 176.236 77.8679 176.391 77.6785L186.769 64.9812C186.9 64.8223 187.013 64.8337 187.11 65.0152C197.659 84.6825 196.261 102.307 196.423 126.477C196.582 149.426 201.854 171.073 212.238 191.419C212.493 191.929 212.399 192.006 211.956 191.648L189.555 173.641C189.356 173.482 189.192 173.51 189.061 173.726L173.246 199.384C173.025 199.742 172.761 199.778 172.454 199.495L155.839 184.159C155.64 183.978 155.466 184.003 155.319 184.236L128.563 227.553C128.194 228.149 127.825 228.149 127.456 227.553L100.735 184.227C100.598 184.006 100.434 183.983 100.24 184.159L83.5142 199.554C83.2415 199.804 83.0086 199.77 82.8155 199.452L66.9924 173.717C66.8447 173.479 66.6629 173.448 66.4471 173.624L44.2078 191.64C44.1853 191.658 44.1574 191.668 44.1286 191.668C44.0998 191.668 44.0717 191.658 44.049 191.641C44.0263 191.623 44.0103 191.598 44.0036 191.57C43.9968 191.542 43.9997 191.513 44.0118 191.487C52.1577 175.175 57.1764 158.018 59.0681 140.016C62.0077 112.018 55.3445 89.8482 69.0203 65.3216C69.1396 65.106 69.2788 65.0918 69.4378 65.279L80.0718 77.9934C80.2154 78.1659 80.3004 78.3789 80.3143 78.6011C80.3281 78.8233 80.2699 79.0428 80.1485 79.2274C75.4109 86.5803 74.9167 97.0905 81.1369 104.06C86.38 109.938 93.1426 112.871 101.425 112.86C101.709 112.854 101.84 112.996 101.817 113.286L101.118 122.587C101.095 122.882 100.959 123.104 100.709 123.251L79.7054 135.387C79.4384 135.54 79.4384 135.693 79.7054 135.846C84.619 138.598 89.5213 141.37 94.4122 144.161C108.719 152.314 114.777 171.641 119.762 187.776C122.494 196.615 125.169 205.469 127.788 214.337C127.896 214.717 128.012 214.72 128.137 214.345Z" fill="black"/>
<path d="M88.7544 86.1718C88.7776 86.1148 88.8137 86.0641 88.8602 86.0237C88.9066 85.9832 88.9621 85.954 89.0222 85.9383C89.0824 85.9227 89.1456 85.921 89.2071 85.9335C89.2685 85.9459 89.3264 85.9721 89.3764 86.0101C95.6705 90.8553 102.334 95.1246 109.366 98.8181C109.471 98.8728 109.559 98.9556 109.62 99.0572C109.68 99.1588 109.711 99.2752 109.71 99.3935C109.708 99.5118 109.673 99.6273 109.61 99.727C109.546 99.8268 109.456 99.9069 109.349 99.9585C99.9252 104.614 82.8495 99.9585 88.7544 86.1718Z" fill="black"/>
<path d="M166.507 96.9799C161.036 103.065 153.155 102.75 146.125 99.8053C146.044 99.7725 145.973 99.7169 145.923 99.6451C145.873 99.5732 145.845 99.4884 145.842 99.4008C145.84 99.3133 145.862 99.2269 145.908 99.1521C145.954 99.0773 146.02 99.0175 146.099 98.9798C153.314 95.3544 160.122 91.0851 166.524 86.1718C167.035 85.7803 167.398 85.8881 167.614 86.4952C168.73 89.6865 169.063 94.1289 166.507 96.9799Z" fill="black"/>
<path d="M112.195 125.974C112.348 115.6 113.201 104.265 123.528 98.767C126.504 97.1898 129.541 97.2011 132.636 98.8011C143.645 104.494 143.662 117.609 144.08 128.204C144.148 130.042 152.413 134.357 154.151 135.37C154.441 135.54 154.447 135.713 154.168 135.889C149.874 138.629 147.125 140.652 145.92 141.957C136.292 152.433 132.739 164.33 128.274 178.296C128.132 178.738 127.987 178.738 127.839 178.296C121.824 160.347 118.015 146.11 102.166 135.821C102.09 135.771 102.029 135.703 101.988 135.622C101.947 135.542 101.927 135.452 101.932 135.362C101.936 135.272 101.964 135.184 102.012 135.108C102.061 135.032 102.129 134.969 102.209 134.927C106.06 132.876 112.118 131.234 112.195 125.974Z" fill="black"/>
</svg>

<svg xmlns="http://www.w3.org/2000/svg" fill="none" viewBox="0 0 256 256"><path fill="#000" d="M80.6 47.442a16 16 0 0 1 2.514-2.698c27.701-23.267 67.203-22.374 92.995 3.234a1.97 1.97 0 0 0 1.935.484q8.495-2.467 13.923-9.454a.31.31 0 0 1 .409-.084.33.33 0 0 1 .136.407c-9.484 21.923-31.263 39.811-52.036 50.756q-.946.493-1.909.016c-2.122-1.046-4.243-2.476-6.518-2.944q-7.73-1.591-14.401 3.09-.698.492-1.465.101-19.94-10.349-35.787-26.484c-6.979-7.097-13.54-15.786-16.94-25.216q-.281-.8.332-.212c1.091 1.038 1.739 2.544 2.736 3.463 3.34 3.072 8.043 6.647 12.747 6.28q.835-.066 1.329-.74"/><path fill="#000" d="M128.137 214.345c6.715-19.905 10.924-40.883 21.967-59.07 5.82-9.599 16.607-13.991 26.312-19.241a.4.4 0 0 0 .144-.133.363.363 0 0 0-.135-.514l-21.013-12.085a.92.92 0 0 1-.485-.757l-.69-7.949a1.606 1.606 0 0 1 1.525-1.744c18.592-.886 29.524-16.706 20.492-33.812a1.23 1.23 0 0 1 .137-1.362l10.378-12.697q.196-.238.341.034c10.549 19.668 9.151 37.292 9.313 61.462q.239 34.423 15.815 64.942.382.766-.282.229l-22.401-18.007q-.298-.239-.494.085l-15.815 25.658q-.331.536-.792.111l-16.615-15.336q-.299-.272-.52.077l-26.756 43.317q-.553.894-1.107 0l-26.721-43.326q-.205-.332-.495-.068l-16.726 15.395q-.408.375-.698-.102l-15.824-25.735q-.221-.357-.545-.093l-22.24 18.016a.13.13 0 0 1-.158.001.13.13 0 0 1-.037-.154q12.218-24.468 15.056-51.471c2.94-27.998-3.724-50.168 9.952-74.694q.18-.324.418-.043l10.634 12.714c.143.173.228.386.242.608s-.044.442-.165.626c-4.738 7.353-5.232 17.864.988 24.833q7.865 8.817 20.288 8.8.426-.009.392.426l-.699 9.301a.8.8 0 0 1-.409.664l-21.004 12.136q-.4.23 0 .459 7.37 4.128 14.707 8.315c14.307 8.153 20.365 27.48 25.35 43.615a2202 2202 0 0 1 8.026 26.561q.162.57.349.008"/><path fill="#000" d="M88.754 86.172a.39.39 0 0 1 .268-.234.41.41 0 0 1 .354.072 137.6 137.6 0 0 0 19.99 12.808.64.64 0 0 1 .344.576.65.65 0 0 1-.361.564c-9.424 4.656-26.5 0-20.595-13.786m77.753 10.808c-5.471 6.085-13.352 5.77-20.382 2.825a.45.45 0 0 1-.283-.404.45.45 0 0 1 .257-.421 127.5 127.5 0 0 0 20.425-12.808q.766-.588 1.09.323c1.116 3.191 1.449 7.634-1.107 10.485m-54.312 28.994c.153-10.374 1.006-21.709 11.333-27.207q4.465-2.366 9.108.034c11.009 5.693 11.026 18.808 11.444 29.403.068 1.838 8.333 6.153 10.071 7.166q.435.255.017.519-6.44 4.11-8.248 6.068c-9.628 10.476-13.181 22.373-17.646 36.339q-.213.663-.435 0c-6.015-17.949-9.824-32.186-25.673-42.475a.52.52 0 0 1-.234-.459.52.52 0 0 1 .277-.435c3.851-2.051 9.909-3.693 9.986-8.953"/></svg>
